X: 51
M: 6/8
L: 1/8
K: D
def gea | fdf ecA |\
def gea | fdd d2 ::\
f/g/ |\
aaf gge | ffd ecA |
fga agf | eee e2f/g/ |\
aaf gge | ffd ecA |\
def gea | fdd d2 :|


